!!!COM: Béla Bartók
!!!OTL: [T351_Bar-w31p10s1-2]
**kern	**kern	**dynam
*grp:A	*grp:B	*grp:B
*part1	*part1	*part1
*staff2	*staff1	*staff1/2
*I"Piano	*I"Piano	*I"Piano
*I'Pno.	*	*
*clefF4	*clefG2	*
*k[b-e-a-]	*k[b-e-a-]	*
*E-:	*E-:	*
*M2/4	*M2/4	*
=1	=1	=1
!	!LO:TX:t=Allegro vivace, [quarter]=152	!LO:DY:t=%s non legato
4r	16e-LL	f
.	16f	.
.	16g	.
.	16fJJ	.
16r	4g	.
16E-LL	.	.
16F	.	.
16GJJ	.	.
=2	=2	=2
4An	16fLL^^<	.
.	16e-JJ	.
.	4f	.
16FLL	.	.
16GJ	.	.
[8A-XJ	16e-LL	.
.	16dJJ	.
=3	=3	=3
*M3/8	*M3/8	*
8A-L]	4e-^^<	.
16G-XL	.	.
16FJ	.	.
[8F-XJ	8B-	.
=4	=4	=4
*M2/4	*M2/4	*
8F-L]	16cLL^^<	.
.	16dJJ	.
16G-XL	4e-	.
16A-JJ	.	.
[4An	.	.
.	16dLL	.
.	16cJJ	.
=5	=5	=5
*M3/8	*M3/8	*
8AL]	4d^^<	.
16A-XL	.	.
16F#XJ	.	.
[8GJ	8B-	.
=6	=6	=6
8G]	16cLL^^<	.
.	16dJ	.
8.G-XL	8e-	.
.	16dL	.
16F-XJk	16cJJ	.
=7	=7	=7
*M1/4	*M1/4	*
8G-XL	4B-	.
8A-J	.	.
=8	=8	=8
*M2/4	*M2/4	*
4.An	16b-LL	.
.	16cc	.
.	16dd	.
.	16ccJJ	.
.	4dd	.
8A-X	.	.
=9	=9	=9
4dn	16cc^^LL	.
.	16b-JJ	.
.	4cc	.
8G	.	.
!LO:TX:t=P:problem:cross-bar beaming	!	!
[8cL	16b-LL	.
.	16a-JJ	.
=10	=10	=10
*M3/8	*M3/8	*
8cJ]	4b-^^	.
[4c-X	.	.
.	8e-	.
=	=	=
*-	*-	*-
!!!system-decoration: [({(s1,s2)})]
!!!RDF**kern: > = above
!!!RDF**kern: < = below
!!!EED: Rafael Laurindo
!!!EEV: 2021/07/14
!!!EED2: Gabriella Vici
!!!EEV2: 2022/02/09
